X:536
T:B536-  You I Love By All That's True
S:by Charles Taylor, 1683
Q:1/4=120
L:1/4
M:C|
K:Am
A3/2B/^GE|e3/2B/c2|^c3/2c/d(c/B/)|B3/2A/A2|\
(E/F/) (G/E/)A3/2A/|(B/c/) (d/B/)e2|f3/2g/c3/2d/|d3/2c/c2|\
B3/2c/ (d/c/) (B/A/)|^G3/2F/E2|e3/2B/d(d/B/)|B3/2A/.A2|]

